src/topics/icons/ghost.svg

<svg height="165" preserveAspectRatio="xMidYMid" viewBox="0 0 512 165" width="512" xmlns="http://www.w3.org/2000/svg"><g fill="#3d515b"><path d="m.216912 108.237901h34.907389v17.454245h-34.907389z"/><path d="m52.576344 108.237901h34.885368v17.454245h-34.885368z"/><path d="m.190486 73.330512h87.282237v17.454245h-87.282237z"/><path d="m.216912 38.425325h52.366039v17.453144h-52.366039z"/><path d="m70.030589 38.425325h17.453144v17.453144h-17.453144z"/></g><g fill="#404041" transform="translate(125.522581)"><path d="m215.342796 38.3251269c-28.031174 0-42.508112 19.822658-42.508112 44.2753376 0 24.4537805 14.120189 44.2786405 42.508112 44.2786405 28.387922 0 42.508112-19.82486 42.508112-44.2786405.001101-24.4526796-14.478039-44.2753376-42.508112-44.2753376zm21.206709 44.354615c-.019819 15.7244559-5.318193 28.4605931-21.206709 28.4605931s-21.187992-12.7350361-21.204508-28.4605931v-.0385376-.0396387c.016516-15.7233548 5.317093-28.4583914 21.205609-28.4583914 15.887415 0 21.185789 12.7350366 21.205608 28.4583914v.0396387z"/><path d="m89.8301247 125.691045v-122.41534608s16.1461673-2.29353978 17.3980903-2.4620043c1.418185-.19158709 3.301024.81809893 3.301024 2.81434839v45.37971609c3.350572-3.1854107 7.040275-5.7531182 11.061402-7.709729 4.02443-1.9544086 8.743639-2.9332645 14.165333-2.9332645 4.693884 0 8.852645.7960774 12.483992 2.3893333 3.633548 1.5899527 6.664808 3.8273377 9.094881 6.7022452 2.430073 2.8793118 4.274375 6.3146667 5.531802 10.3093677 1.256327 3.9947011 1.885041 8.3945979 1.885041 13.1996904v54.7245418h-20.700215v-54.7245418c0-5.251028-1.215587-9.3161979-3.64566-12.1955097-2.431174-2.8760086-6.076834-4.315114-10.939183-4.315114-3.575191 0-6.925763.8103914-10.052817 2.4322753-3.130357 1.6207828-6.091148 3.8251354-8.884576 6.6207656v62.1832256z"/><path d="m366.179097 126.870297c-14.244611 0-23.172129-8.289996-23.172129-23.755699v-45.8355614h-16.053678s3.412233-11.8013248 3.681996-12.7306323c.270865-.9282065.976654-1.9257806 2.393738-2.1228731s9.958124-1.3884559 9.958124-1.3884559l3.945153-25.0979097s11.591019-1.6339957 13.428714-1.9081634c1.735295-.2598538 3.308731.9898666 3.308731 2.8804129v24.1256602h20.303828v16.2419613h-20.303828v45.2178584c0 6.173729 3.759071 8.533333 7.361789 8.533333 2.202151 0 5.217996-1.169342 7.468594-2.213161 1.390658-.643028 3.545462-.166263 4.102606 1.774933.492181 1.71988 3.109437 10.848895 3.109437 10.848895-2.258305 1.457823-9.396576 5.429402-19.533075 5.429402z"/><path d="m315.578082 57.5499011c-4.03434-1.3102796-11.617445-3.407828-18.83059-3.407828-7.349677 0-13.132524 2.5390796-13.132524 8.6500473 0 7.6326538 12.463071 9.8546237 20.994202 12.9662624 5.70357 2.0799312 20.998606 6.1351914 20.998606 22.5852559 0 19.9823143-16.594305 28.5255573-34.296292 28.5255573-17.704189 0-28.163303-6.58443-28.163303-6.58443s2.746081-9.700474 3.302124-11.615243c.503192-1.723183 2.506048-2.327674 3.782194-1.837695 4.556249 1.756215 12.783484 4.197299 22.083166 4.197299 9.415294 0 13.970443-2.874908 13.970443-9.003493 0-8.1567652-12.714117-10.6495996-21.123028-13.3020899-5.792757-1.8255828-21.125231-6.0834409-21.125231-24.1752086 0-17.8220043 15.649583-26.1835699 32.374917-26.1835699 14.157625 0 21.102107 2.9607914 26.289273 5.603372 0 0-2.890323 10.0737377-3.319742 11.5745033-.506495 1.7837419-1.969824 2.6018408-3.804215 2.0072602z"/><path d="m81.7493333 41.3156473c0-1.9279828-1.6472086-3.0312602-3.218443-2.8517849-6.9466838.7960774-11.9026236 4.0651699-15.1089548 7.1085419-6.2959484-4.9328172-15.0351828-7.2880172-24.8435613-7.2880172-19.6652043 0-35.02960861 9.4912688-35.02960861 30.1870796 0 11.8806021 5.05723871 20.0670967 13.08848171 24.8865032-5.9645247 2.823157-9.93720429 8.8141071-9.93720429 14.7037591 0 9.852422 7.78350109 12.937634 7.78350109 12.937634s-13.60929034 6.605351-13.60929034 19.820456c0 16.916921 15.56810324 23.7568 34.59138064 23.7568 27.4211785 0 46.2870022-11.32566 46.2870022-32.121668 0-12.798899-9.7940646-19.864499-31.1373076-20.70462-12.6656688-.499888-20.8697806-.955733-22.9023656-1.62849-2.6855225-.891871-4.0057118-3.042271-4.0057118-5.416189 0-2.62056 2.1526022-5.1155961 5.5461161-6.8288692 2.9596904.5241118 6.0834409.7828645 9.3272086.7828645 19.6817205 0 35.0307097-9.4637419 35.0307097-30.1870796 0-5.0253075-.907286-9.3877677-2.5566968-13.1149075 2.8914237-1.5426064 6.4489979-2.6282667 10.6969463-2.6282667-.0022022 0-.0022022-9.655329-.0022022-11.4137462zm-54.1938236 84.4822017s10.3269849.390882 20.6462623.868749c11.5932215.536224 15.2058495 3.034563 15.2058495 9.037626 0 7.334262-10.0748387 14.468129-24.1542882 14.468129-13.3648516 0-20.0406709-4.649841-20.0406709-12.391501 0-4.441738 2.3452903-9.410891 8.3428473-11.983003zm11.0603011-41.5843092c-9.3161979 0-16.5843957-4.9482323-16.5843957-15.7420731 0-10.794942 7.2748043-15.7431742 16.5843957-15.7431742 9.3106924 0 16.5843957 4.9350193 16.5843957 15.7431742 0 10.8081548-7.2648947 15.7420731-16.5843957 15.7420731z"/></g></svg>

<?xml version="1.0" encoding="UTF-8" standalone="no"?>
<svg width="512px" height="165px" viewBox="0 0 512 165" version="1.1" xmlns="http://www.w3.org/2000/svg" xmlns:xlink="http://www.w3.org/1999/xlink" preserveAspectRatio="xMidYMid">
	<g>
		<g transform="translate(0.000000, 37.436559)" fill="#3D515B">
			<rect x="0.216911828" y="70.8013419" width="34.9073892" height="17.4542452"></rect>
			<rect x="52.5763441" y="70.8013419" width="34.8853677" height="17.4542452"></rect>
			<rect x="0.190486022" y="35.8939527" width="87.2822366" height="17.4542452"></rect>
			<rect x="0.216911828" y="0.988765591" width="52.3660387" height="17.4531441"></rect>
			<rect x="70.0305892" y="0.988765591" width="17.4531441" height="17.4531441"></rect>
		</g>
		<g transform="translate(125.522581, 0.000000)" fill="#404041">
			<path d="M215.342796,38.3251269 C187.311622,38.3251269 172.834684,58.1477849 172.834684,82.6004645 C172.834684,107.054245 186.954873,126.879105 215.342796,126.879105 C243.730718,126.879105 257.850908,107.054245 257.850908,82.6004645 C257.852009,58.1477849 243.372869,38.3251269 215.342796,38.3251269 L215.342796,38.3251269 Z M236.549505,82.6797419 L236.549505,82.6797419 C236.529686,98.4041978 231.231312,111.140335 215.342796,111.140335 C199.45428,111.140335 194.154804,98.4052989 194.138288,82.6797419 L194.138288,82.6797419 L194.138288,82.6412043 L194.138288,82.6015656 L194.138288,82.6015656 C194.154804,66.8782108 199.455381,54.1431742 215.343897,54.1431742 C231.231312,54.1431742 236.529686,66.8782108 236.549505,82.6015656 L236.549505,82.6015656 L236.549505,82.6412043 C236.549505,82.6544172 236.549505,82.666529 236.549505,82.6797419 L236.549505,82.6797419 Z"></path>
			<path d="M89.8301247,125.691045 L89.8301247,3.27569892 C89.8301247,3.27569892 105.976292,0.98215914 107.228215,0.813694624 C108.6464,0.622107527 110.529239,1.63179355 110.529239,3.62804301 L110.529239,49.0077591 C113.879811,45.8223484 117.569514,43.2546409 121.590641,41.2980301 C125.615071,39.3436215 130.33428,38.3647656 135.755974,38.3647656 C140.449858,38.3647656 144.608619,39.160843 148.239966,40.7540989 C151.873514,42.3440516 154.904774,44.5814366 157.334847,47.4563441 C159.76492,50.3356559 161.609222,53.7710108 162.866649,57.7657118 C164.122976,61.7604129 164.75169,66.1603097 164.75169,70.9654022 L164.75169,125.689944 L144.051475,125.689944 L144.051475,70.9654022 C144.051475,65.7143742 142.835888,61.6492043 140.405815,58.7698925 C137.974641,55.8938839 134.328981,54.4547785 129.466632,54.4547785 C125.891441,54.4547785 122.540869,55.2651699 119.413815,56.8870538 C116.283458,58.5078366 113.322667,60.7121892 110.529239,63.5078194 L110.529239,125.691045 L89.8301247,125.691045 L89.8301247,125.691045 Z"></path>
			<path d="M366.179097,126.870297 C351.934486,126.870297 343.006968,118.580301 343.006968,103.114598 L343.006968,57.2790366 L326.95329,57.2790366 C326.95329,57.2790366 330.365523,45.4777118 330.635286,44.5484043 C330.906151,43.6201978 331.61194,42.6226237 333.029024,42.4255312 C334.446108,42.2284387 342.987148,41.0370753 342.987148,41.0370753 L346.932301,15.9391656 C346.932301,15.9391656 358.52332,14.3051699 360.361015,14.0310022 C362.09631,13.7711484 363.669746,15.0208688 363.669746,16.9114151 L363.669746,41.0370753 L383.973574,41.0370753 L383.973574,57.2790366 L363.669746,57.2790366 L363.669746,102.496895 C363.669746,108.670624 367.428817,111.030228 371.031535,111.030228 C373.233686,111.030228 376.249531,109.860886 378.500129,108.817067 C379.890787,108.174039 382.045591,108.650804 382.602735,110.592 C383.094916,112.31188 385.712172,121.440895 385.712172,121.440895 C383.453867,122.898718 376.315596,126.870297 366.179097,126.870297 L366.179097,126.870297 Z"></path>
			<path d="M315.578082,57.5499011 C311.543742,56.2396215 303.960637,54.1420731 296.747492,54.1420731 C289.397815,54.1420731 283.614968,56.6811527 283.614968,62.7921204 C283.614968,70.4247742 296.078039,72.6467441 304.60917,75.7583828 C310.31274,77.838314 325.607776,81.8935742 325.607776,98.3436387 C325.607776,118.325953 309.013471,126.869196 291.311484,126.869196 C273.607295,126.869196 263.148181,120.284766 263.148181,120.284766 C263.148181,120.284766 265.894262,110.584292 266.450305,108.669523 C266.953497,106.94634 268.956353,106.341849 270.232499,106.831828 C274.788748,108.588043 283.015983,111.029127 292.315665,111.029127 C301.730959,111.029127 306.286108,108.154219 306.286108,102.025634 C306.286108,93.8688688 293.571991,91.3760344 285.16308,88.7235441 C279.370323,86.8979613 264.037849,82.6401032 264.037849,64.5483355 C264.037849,46.7263312 279.687432,38.3647656 296.412766,38.3647656 C310.570391,38.3647656 317.514873,41.325557 322.702039,43.9681376 C322.702039,43.9681376 319.811716,54.0418753 319.382297,55.5426409 C318.875802,57.3263828 317.412473,58.1444817 315.578082,57.5499011 L315.578082,57.5499011 Z"></path>
			<path d="M81.7493333,41.3156473 C81.7493333,39.3876645 80.1021247,38.2843871 78.5308903,38.4638624 C71.5842065,39.2599398 66.6282667,42.5290323 63.4219355,45.5724043 C57.1259871,40.6395871 48.3867527,38.2843871 38.5783742,38.2843871 C18.9131699,38.2843871 3.54876559,47.7756559 3.54876559,68.4714667 C3.54876559,80.3520688 8.6060043,88.5385634 16.6372473,93.3579699 C10.6727226,96.1811269 6.70004301,102.172077 6.70004301,108.061729 C6.70004301,117.914151 14.4835441,120.999363 14.4835441,120.999363 C14.4835441,120.999363 0.874253763,127.604714 0.874253763,140.819819 C0.874253763,157.73674 16.442357,164.576619 35.4656344,164.576619 C62.8868129,164.576619 81.7526366,153.250959 81.7526366,132.454951 C81.7526366,119.656052 71.958572,112.590452 50.615329,111.750331 C37.9496602,111.250443 29.7455484,110.794598 27.7129634,110.121841 C25.0274409,109.22997 23.7072516,107.07957 23.7072516,104.705652 C23.7072516,102.085092 25.8598538,99.5900559 29.2533677,97.8767828 C32.2130581,98.4008946 35.3368086,98.6596473 38.5805763,98.6596473 C58.2622968,98.6596473 73.611286,89.1959054 73.611286,68.4725677 C73.611286,63.4472602 72.704,59.0848 71.0545892,55.3576602 C73.9460129,53.8150538 77.5035871,52.7293935 81.7515355,52.7293935 C81.7493333,52.7293935 81.7493333,43.0740645 81.7493333,41.3156473 L81.7493333,41.3156473 Z M27.5555097,125.797849 C27.5555097,125.797849 37.8824946,126.188731 48.201772,126.666598 C59.7949935,127.202822 63.4076215,129.701161 63.4076215,135.704224 C63.4076215,143.038486 53.3327828,150.172353 39.2533333,150.172353 C25.8884817,150.172353 19.2126624,145.522512 19.2126624,137.780852 C19.2126624,133.339114 21.5579527,128.369961 27.5555097,125.797849 L27.5555097,125.797849 Z M38.6158108,84.2135398 C29.2996129,84.2135398 22.0314151,79.2653075 22.0314151,68.4714667 C22.0314151,57.6765247 29.3062194,52.7282925 38.6158108,52.7282925 C47.9265032,52.7282925 55.2002065,57.6633118 55.2002065,68.4714667 C55.2002065,79.2796215 47.9353118,84.2135398 38.6158108,84.2135398 L38.6158108,84.2135398 Z"></path>
		</g>
	</g>
</svg>
